X:6162
T:Sommarvalsen (A. Möller)
O:england
M:3/4
L:1/4
K:G
{c/}dc|B>AG|A2F|G3|E>FE|\
DGA|c2B|BAG|A{c}d>c|\
B>AG|A2F|G3|
E>FE|DEG|G2F|G3-|G:|\
|:AG|A>AA|AFD|c3|\
B>AG|EA/B/c|
d>c B/A/|GFG|AB>A|\
G>AG|F>GF|E>FE|DGA|\
B>AG|AdF|G3-|G:|


